X: 130877
T: McGuinness' Frolics
S: "First Collection of Traditional Irish Music" (M.Mulvihill)
Z: B.Black
L: 1/8
M: 4/4
R: reel
K: G
zE|DGGF GABd|egfd edBG|(3ABA GB AcBA|GABG AGEG|
DG (3GFG DGBd|gfgd edBA|GABd gedc|(3BcB AF G2 :|
Bc|dggf g2 ef|gfga fedg|eaag abag|eaag ecBc|
dggf g2 ef|gbaf gedB|GABd gedc|BcAF G2 :|
